Origami/32x32/apps/coypu.svg

<svg width="32" height="32" version="1.1" viewBox="0 0 8.47 8.47" xmlns="http://www.w3.org/2000/svg">
 <g transform="translate(0,-288.53332)">
  <circle cx="4.233" cy="293.031" r="3.704" style="opacity:.2"/>
  <circle cx="4.233" cy="292.767" r="3.704" style="fill:#fb6651"/>
  <path d="m3.3961752 291.17966s-0.073518-3.8e-4 -0.10542 4e-3c-0.7241937-4e-3 -1.1295198 0.78768-1.4862142 1.23042-0.1574732 0.1962-0.2837036 0.35243-0.2837036 0.35243-0.2728275 0.28223-0.64726254 0.57516-0.95498047 0.75138a3.7041666 3.7041666 0 0 0 0.0537435 0.30747c0.11520816-0.0516 0.25149852-0.10176 0.30695799-0.14624 0.30390478-0.24376 0.83569648-0.64079 0.88986818-0.64079 0.054172 0 0.1471452-0.0225 0.1860351 0.11214 0.03889 0.13468-0.050643 0.29507-0.050643 0.29507s-0.1177795 0.20114-0.1136881 0.31161c0.055662 0.3982 0.3763444 0.79699 0.7022827 0.85163 0.2347874 0.0321 0.5818765 0.0109 0.5818765 0.0109l0.00723-0.0589c-0.0076-0.0894-0.1912027-0.12764-0.1912027-0.12764-0.00143 1e-3 -0.2333422 0.0446-0.3348634-2e-3 -0.1712535-0.0784-0.3715535-0.38669-0.3715535-0.42581 0-0.0391 0.057361-0.21498 0.057361-0.21498s0.1890111 0.0258 0.2516642 0.0258c0.062653 0 0.2242758 8e-3 0.2242758 8e-3l0.1214395 0.18759c0.038136 0.0736 0.085566 0.0366 0.1488281 0.0537l0.2702679 3e-3 0.1865519-4e-3v-0.0951c0 0.0951 1.339e-4 -0.0903-0.1209228-0.093-0.1048964-5e-3 -0.2415566-0.0184-0.2532147-0.0563-0.019108-0.0621 0.00775-0.22376 0.00775-0.22376s0.1349716-0.0652 0.4196128-9e-3c0.2846411 0.0563 0.6087483 0.29198 0.6087483 0.29198-0.081383 0.15028-0.1559394 0.18244-0.1705322 0.33641-0.014764 0.1395-0.014685 0.13953 0.076998 0.13953h0.4371827s1.61e-5 -0.18501-0.1255736-0.1757c-0.088076-3e-3 -0.1369425-8e-3 -0.1369428-0.0155 0-0.0352 0.1679485-0.18241 0.1679485-0.18241l0.1188559-0.0858s0.1661858 0.11165 0.3798218 0.16588c0.2136359 0.0542 0.480074 0.0279 0.480074 0.0279 0.083377 0.0502 0.099703 0.0921 0.1410766 0.1633 0.032875 0.12912 0.032961 0.10271 0.1049031 0.10542 0.1576382 4e-3 0.2908435-3e-3 0.4449341-0.014 0 0 0.012557-0.17415-0.2439127-0.17415 0 0-0.093703-0.0591-0.1105876-0.14727-0.016886-0.0881-0.00672-0.31885-0.00672-0.31885l0.1266071-0.0109 0.166915 0.14263 0.1038696 0.01 0.1441773 0.23202s0.2871454 0.0211 0.3834389-0.0155c0.096293-0.0365 0.2707579-0.13381 0.3715536-0.24288 0.1007957-0.10908 0.1679427-0.36723 0.1338421-0.51263-0.034101-0.1454-0.2222087-0.31936-0.2222087-0.31936-0.3984464-0.37791-1.019833-1.00988-1.4050822-1.01337-0.061438 0-0.2143649 0.14434-0.3028238 0.0806-0.551293-0.3801-1.1548713-0.84689-1.8159098-0.87385zm2.6892414 1.58698c0.1461254 0 0.2645833 0.11843 0.2645833 0.26458 0 0.14613-0.1184584 0.26459-0.2645833 0.26459-0.1461254 0-0.2645833-0.11843-0.2645833-0.26459 0-0.14612 0.1184587-0.26458 0.2645833-0.26458z" style="fill-rule:evenodd;opacity:.2"/>
  <path transform="matrix(.26458333 0 0 .26458333 0 288.53332)" d="m12.835938 9.0019531s-0.277865-0.0014101-0.398438 0.0136719c-2.73711-0.015118-4.2690512 2.977043-5.6171875 4.650391-0.5951743 0.741543-1.0722656 1.332031-1.0722656 1.332031-1.0311589 1.066681-2.4463466 2.173814-3.609375 2.839844a14 14 0 0 0 0.203125 1.162109c0.4354324-0.19507 0.9505456-0.384614 1.1601562-0.552734 1.1486165-0.921298 3.1585378-2.421875 3.3632813-2.421875 0.2047445 0 0.5561395-0.085201 0.703125 0.423828 0.1469858 0.509026-0.1914063 1.115234-0.1914063 1.115234s-0.445151 0.76021-0.4296875 1.177735c0.2103761 1.505006 1.4224041 3.012236 2.6542969 3.21875 0.8873855 0.121321 2.1992185 0.041015 2.1992185 0.041015l0.027344-0.222656c-0.02872-0.33789-0.722656-0.482422-0.722656-0.482422-0.0054 0.0038-0.881923 0.168678-1.2656252-0.007813-0.6472574-0.296313-1.4042969-1.46152-1.4042969-1.609374 0-0.14778 0.2167969-0.8125 0.2167969-0.8125s0.7143727 0.097656 0.9511718 0.097656c0.2367988 0 0.8476564 0.029297 0.8476564 0.029297l0.458984 0.708984c0.144136 0.278173 0.323398 0.138495 0.5625 0.203125l1.021485 0.011719 0.705078-0.015625v-0.359375c0 0.359433 5.06e-4 -0.341358-0.457031-0.351563-0.396459-0.0189-0.91297-0.06965-0.957032-0.21289-0.07222-0.234709 0.029297-0.845704 0.029297-0.845704s0.510129-0.246371 1.585938-0.033203c1.075809 0.212788 2.300781 1.103516 2.300781 1.103516-0.307589 0.567987-0.589377 0.689551-0.644531 1.271484-0.0558 0.527244-0.055501 0.527344 0.291015 0.527344h1.652344s6.1e-5 -0.69925-0.474609-0.664062c-0.332885-0.01134-0.517578-0.030254-0.517579-0.058594 0-0.133039 0.634766-0.689453 0.634766-0.689453l0.449219-0.324219s0.628104 0.421989 1.435547 0.626953c0.807443 0.20485 1.814453 0.105469 1.814453 0.105469 0.315125 0.189732 0.376829 0.348047 0.533203 0.617187 0.124252 0.488013 0.124576 0.388195 0.396484 0.398438 0.595798 0.01512 1.099251-0.011545 1.681641-0.052734 0 0 0.04746-0.658204-0.921875-0.658204 0 0-0.354151-0.22355-0.417969-0.55664-0.06382-0.332977-0.02539-1.205078-0.02539-1.205078l0.478515-0.041016 0.63086 0.539062 0.392578 0.03711 0.544922 0.876953s1.085274 0.079736 1.449218-0.058594c0.363942-0.137953 1.023337-0.505735 1.404297-0.917969 0.38096-0.412269 0.634744-1.387956 0.50586-1.9375-0.128886-0.549542-0.839844-1.207031-0.839844-1.207031-1.505939-1.428321-3.854487-3.816887-5.310547-3.830078-0.232207 0-0.810198 0.545557-1.144531 0.304688-2.083627-1.436604-4.364868-3.2008387-6.863281-3.3027348v-0.0019531zm10.164062 5.9980469c0.552285 0 1 0.447622 1 1 0 0.552302-0.447717 1-1 1-0.552285 0-1-0.447584-1-1 0-0.552265 0.447718-1 1-1z" style="fill-rule:evenodd;fill:#ffffff"/>
  <path transform="matrix(.26458333 0 0 .26458333 0 288.53332)" d="M 16 2 A 14 14 0 0 0 2 16 A 14 14 0 0 0 2.0214844 16.585938 A 14 14 0 0 1 16 3 A 14 14 0 0 1 29.978516 16.414062 A 14 14 0 0 0 30 16 A 14 14 0 0 0 16 2 z" style="fill:#ffffff;opacity:.2"/>
 </g>
</svg>

<svg xmlns="http://www.w3.org/2000/svg" width="32" height="32" version="1.1" viewBox="0 0 8.47 8.47">
 <g transform="translate(0,-288.53332)">
  <circle style="opacity:0.2" cx="4.233" cy="293.031" r="3.704"/>
  <circle style="fill:#fb6651" cx="4.233" cy="292.767" r="3.704"/>
  <path style="opacity:0.2;fill-rule:evenodd" d="m 3.3961752,291.17966 c 0,0 -0.073518,-3.8e-4 -0.10542,0.004 -0.7241937,-0.004 -1.1295198,0.78768 -1.4862142,1.23042 -0.1574732,0.1962 -0.2837036,0.35243 -0.2837036,0.35243 -0.2728275,0.28223 -0.64726254,0.57516 -0.95498047,0.75138 a 3.7041666,3.7041666 0 0 0 0.0537435,0.30747 c 0.11520816,-0.0516 0.25149852,-0.10176 0.30695799,-0.14624 0.30390478,-0.24376 0.83569648,-0.64079 0.88986818,-0.64079 0.054172,0 0.1471452,-0.0225 0.1860351,0.11214 0.03889,0.13468 -0.050643,0.29507 -0.050643,0.29507 0,0 -0.1177795,0.20114 -0.1136881,0.31161 0.055662,0.3982 0.3763444,0.79699 0.7022827,0.85163 0.2347874,0.0321 0.5818765,0.0109 0.5818765,0.0109 l 0.00723,-0.0589 c -0.0076,-0.0894 -0.1912027,-0.12764 -0.1912027,-0.12764 -0.00143,0.001 -0.2333422,0.0446 -0.3348634,-0.002 -0.1712535,-0.0784 -0.3715535,-0.38669 -0.3715535,-0.42581 0,-0.0391 0.057361,-0.21498 0.057361,-0.21498 0,0 0.1890111,0.0258 0.2516642,0.0258 0.062653,0 0.2242758,0.008 0.2242758,0.008 l 0.1214395,0.18759 c 0.038136,0.0736 0.085566,0.0366 0.1488281,0.0537 l 0.2702679,0.003 0.1865519,-0.004 v -0.0951 c 0,0.0951 1.339e-4,-0.0903 -0.1209228,-0.093 -0.1048964,-0.005 -0.2415566,-0.0184 -0.2532147,-0.0563 -0.019108,-0.0621 0.00775,-0.22376 0.00775,-0.22376 0,0 0.1349716,-0.0652 0.4196128,-0.009 0.2846411,0.0563 0.6087483,0.29198 0.6087483,0.29198 -0.081383,0.15028 -0.1559394,0.18244 -0.1705322,0.33641 -0.014764,0.1395 -0.014685,0.13953 0.076998,0.13953 h 0.4371827 c 0,0 1.61e-5,-0.18501 -0.1255736,-0.1757 -0.088076,-0.003 -0.1369425,-0.008 -0.1369428,-0.0155 0,-0.0352 0.1679485,-0.18241 0.1679485,-0.18241 l 0.1188559,-0.0858 c 0,0 0.1661858,0.11165 0.3798218,0.16588 0.2136359,0.0542 0.480074,0.0279 0.480074,0.0279 0.083377,0.0502 0.099703,0.0921 0.1410766,0.1633 0.032875,0.12912 0.032961,0.10271 0.1049031,0.10542 0.1576382,0.004 0.2908435,-0.003 0.4449341,-0.014 0,0 0.012557,-0.17415 -0.2439127,-0.17415 0,0 -0.093703,-0.0591 -0.1105876,-0.14727 -0.016886,-0.0881 -0.00672,-0.31885 -0.00672,-0.31885 l 0.1266071,-0.0109 0.166915,0.14263 0.1038696,0.01 0.1441773,0.23202 c 0,0 0.2871454,0.0211 0.3834389,-0.0155 0.096293,-0.0365 0.2707579,-0.13381 0.3715536,-0.24288 0.1007957,-0.10908 0.1679427,-0.36723 0.1338421,-0.51263 -0.034101,-0.1454 -0.2222087,-0.31936 -0.2222087,-0.31936 -0.3984464,-0.37791 -1.019833,-1.00988 -1.4050822,-1.01337 -0.061438,0 -0.2143649,0.14434 -0.3028238,0.0806 -0.551293,-0.3801 -1.1548713,-0.84689 -1.8159098,-0.87385 z m 2.6892414,1.58698 c 0.1461254,0 0.2645833,0.11843 0.2645833,0.26458 0,0.14613 -0.1184584,0.26459 -0.2645833,0.26459 -0.1461254,0 -0.2645833,-0.11843 -0.2645833,-0.26459 0,-0.14612 0.1184587,-0.26458 0.2645833,-0.26458 z"/>
  <path style="fill:#ffffff;fill-rule:evenodd" d="M 12.835938 9.0019531 C 12.835938 9.0019531 12.558073 9.000543 12.4375 9.015625 C 9.70039 9.000507 8.1684488 11.992668 6.8203125 13.666016 C 6.2251382 14.407559 5.7480469 14.998047 5.7480469 14.998047 C 4.716888 16.064728 3.3017003 17.171861 2.1386719 17.837891 A 14 14 0 0 0 2.3417969 19 C 2.7772293 18.80493 3.2923425 18.615386 3.5019531 18.447266 C 4.6505696 17.525968 6.6604909 16.025391 6.8652344 16.025391 C 7.0699789 16.025391 7.4213739 15.94019 7.5683594 16.449219 C 7.7153452 16.958245 7.3769531 17.564453 7.3769531 17.564453 C 7.3769531 17.564453 6.9318021 18.324663 6.9472656 18.742188 C 7.1576417 20.247194 8.3696697 21.754424 9.6015625 21.960938 C 10.488948 22.082259 11.800781 22.001953 11.800781 22.001953 L 11.828125 21.779297 C 11.799405 21.441407 11.105469 21.296875 11.105469 21.296875 C 11.100069 21.300675 10.223546 21.465553 9.8398438 21.289062 C 9.1925864 20.992749 8.4355469 19.827542 8.4355469 19.679688 C 8.4355469 19.531908 8.6523438 18.867188 8.6523438 18.867188 C 8.6523438 18.867188 9.3667165 18.964844 9.6035156 18.964844 C 9.8403144 18.964844 10.451172 18.994141 10.451172 18.994141 L 10.910156 19.703125 C 11.054292 19.981298 11.233554 19.84162 11.472656 19.90625 L 12.494141 19.917969 L 13.199219 19.902344 L 13.199219 19.542969 C 13.199219 19.902402 13.199725 19.201611 12.742188 19.191406 C 12.345729 19.172506 11.829218 19.121756 11.785156 18.978516 C 11.712936 18.743807 11.814453 18.132812 11.814453 18.132812 C 11.814453 18.132812 12.324582 17.886441 13.400391 18.099609 C 14.4762 18.312397 15.701172 19.203125 15.701172 19.203125 C 15.393583 19.771112 15.111795 19.892676 15.056641 20.474609 C 15.000841 21.001853 15.00114 21.001953 15.347656 21.001953 L 17 21.001953 C 17 21.001953 17.000061 20.302703 16.525391 20.337891 C 16.192506 20.326551 16.007813 20.307637 16.007812 20.279297 C 16.007812 20.146258 16.642578 19.589844 16.642578 19.589844 L 17.091797 19.265625 C 17.091797 19.265625 17.719901 19.687614 18.527344 19.892578 C 19.334787 20.097428 20.341797 19.998047 20.341797 19.998047 C 20.656922 20.187779 20.718626 20.346094 20.875 20.615234 C 20.999252 21.103247 20.999576 21.003429 21.271484 21.013672 C 21.867282 21.028792 22.370735 21.002127 22.953125 20.960938 C 22.953125 20.960938 23.000585 20.302734 22.03125 20.302734 C 22.03125 20.302734 21.677099 20.079184 21.613281 19.746094 C 21.549461 19.413117 21.587891 18.541016 21.587891 18.541016 L 22.066406 18.5 L 22.697266 19.039062 L 23.089844 19.076172 L 23.634766 19.953125 C 23.634766 19.953125 24.72004 20.032861 25.083984 19.894531 C 25.447926 19.756578 26.107321 19.388796 26.488281 18.976562 C 26.869241 18.564293 27.123025 17.588606 26.994141 17.039062 C 26.865255 16.48952 26.154297 15.832031 26.154297 15.832031 C 24.648358 14.40371 22.29981 12.015144 20.84375 12.001953 C 20.611543 12.001953 20.033552 12.54751 19.699219 12.306641 C 17.615592 10.870037 15.334351 9.1058023 12.835938 9.0039062 L 12.835938 9.0019531 z M 23 15 C 23.552285 15 24 15.447622 24 16 C 24 16.552302 23.552283 17 23 17 C 22.447715 17 22 16.552416 22 16 C 22 15.447735 22.447718 15 23 15 z" transform="matrix(0.26458333,0,0,0.26458333,0,288.53332)"/>
  <path style="opacity:0.2;fill:#ffffff" d="M 16 2 A 14 14 0 0 0 2 16 A 14 14 0 0 0 2.0214844 16.585938 A 14 14 0 0 1 16 3 A 14 14 0 0 1 29.978516 16.414062 A 14 14 0 0 0 30 16 A 14 14 0 0 0 16 2 z" transform="matrix(0.26458333,0,0,0.26458333,0,288.53332)"/>
 </g>
</svg>
